X:239
T:Dibdins Fancy. VWMLa.239
%%VWML:Anon2-3049-p158-0
F:http://www.vwml.org/record/Anon2/3049/p158
S:Anon. MS, late 18thC, Vaughan Williams Mem. Library
O:England;Yorkshire
Z:vmp/efdss.Simon Wilson. Reviewed PJH 2008.
M:2/4
L:1/8
Q:1/4=140
K:G
GD GD|B,D D2|EG GG|Ac AF|\
GD GD|B,D D2|CE DF|G2 G,2:|
dB cd|ef ge|dB AG|AF ED|\
dB cd|ef ge|dB AG|!D.C.!{^c}d2 {^c}d2|]
T:Pleyels Air. VWMLa.240
R:Air
S:Anon. MS, late 18thC, Vaughan Williams Mem. Library
N:Polka. PJH.
O:England;Yorkshire
Z:vmp/efdss.Simon Wilson. Reviewed PJH 2008.
M:2/4
L:1/8
Q:1/4=120
K:A
.c(d/c/) .B(c/B/)|A2 EA|BB BB|(e2 c)z|\
.c(d/c/) .B(c/B/)|A2 EA|BB .B(B/c/)|A4:|
|:ee gg|ee {g}a2|dc de|(c2 A)z|\
ee gg|ee {g}a2|dc dB|A4:|
